Sources/FrostedUI/Resources/Icons.xcassets/reply20.imageset/reply-20.svg

<svg width="20" height="20" viewBox="0 0 20 20" fill="none" xmlns="http://www.w3.org/2000/svg" data-fui-icon="true">
  <path
    d="M8.32458 2.6604C9.07469 2.16743 10.1251 2.69602 10.1254 3.64185V6.34399C13.3296 6.43593 15.6143 7.14305 17.0775 8.8313C18.6252 10.6173 19.0833 13.3175 19.0834 16.8743C19.0834 17.2218 18.8444 17.5236 18.5062 17.6038C18.1677 17.6837 17.818 17.5203 17.6625 17.2092C17.021 15.9263 16.6406 15.1575 15.6732 14.6106C14.7326 14.0789 13.1573 13.7218 10.1254 13.6721V16.3567C10.1254 17.3658 8.93039 17.9 8.17908 17.2258L1.09509 10.8674C0.578702 10.4039 0.578322 9.59471 1.09509 9.1311L8.17908 2.77271L8.32458 2.6604ZM2.37341 9.99927L8.62537 15.6096V12.9163C8.62557 12.5022 8.96128 12.1663 9.37537 12.1663C12.9301 12.1663 15.0301 12.5248 16.4105 13.3049C16.8233 13.5382 17.163 13.8058 17.4525 14.0969C17.2412 12.1313 16.7628 10.7589 15.9437 9.81372C14.8104 8.50612 12.8574 7.83233 9.37537 7.83228C8.96115 7.83228 8.62537 7.49649 8.62537 7.08228V4.38794L2.37341 9.99927Z"
    fill="currentColor"
  />
</svg>

<svg xmlns="http://www.w3.org/2000/svg" width="20" height="20" fill="none" data-fui-icon="true" viewBox="0 0 20 20"><path fill="currentColor" d="M8.325 2.66c.75-.493 1.8.036 1.8.982v2.702c3.205.092 5.49.799 6.953 2.487 1.547 1.786 2.005 4.487 2.005 8.043a.75.75 0 0 1-1.42.335c-.642-1.283-1.022-2.051-1.99-2.598-.94-.532-2.516-.89-5.548-.939v2.685c0 1.009-1.195 1.543-1.946.869l-7.084-6.359a1.166 1.166 0 0 1 0-1.736L8.18 2.773zM2.373 10l6.252 5.61v-2.694a.75.75 0 0 1 .75-.75c3.555 0 5.655.359 7.035 1.139.413.233.753.5 1.043.792-.212-1.966-.69-3.338-1.51-4.283-1.133-1.308-3.086-1.982-6.568-1.982a.75.75 0 0 1-.75-.75V4.388z"/></svg>
